build/img/folder/repeate-one.svg

<svg width="24" height="24" viewBox="0 0 24 24" fill="none" xmlns="http://www.w3.org/2000/svg">
<path d="M14 3L16.44 5.34003L8.48999 5.32001C4.91999 5.32001 1.98999 8.25003 1.98999 11.84C1.98999 13.63 2.71999 15.26 3.89999 16.44" stroke="#292D32" stroke-width="1.5" stroke-linecap="round" stroke-linejoin="round"/>
<path d="M10.0001 21.0001L7.56006 18.66L15.5101 18.6801C19.0801 18.6801 22.0101 15.75 22.0101 12.16C22.0101 10.37 21.2801 8.74006 20.1001 7.56006" stroke="#292D32" stroke-width="1.5" stroke-linecap="round" stroke-linejoin="round"/>
<path d="M12.25 14.67V9.33008L10.75 11.0001" stroke="#292D32" stroke-width="1.5" stroke-linecap="round" stroke-linejoin="round"/>
</svg>

<svg width="24" height="24" fill="none" xmlns="http://www.w3.org/2000/svg"><path d="M14 3l2.44 2.34-7.95-.02c-3.57 0-6.5 2.93-6.5 6.52 0 1.79.73 3.42 1.91 4.6M10 21l-2.44-2.34 7.95.02c3.57 0 6.5-2.93 6.5-6.52 0-1.79-.73-3.42-1.91-4.6" stroke="#292D32" stroke-width="1.5" stroke-linecap="round" stroke-linejoin="round"/><path d="M12.25 14.67V9.33L10.75 11" stroke="#292D32" stroke-width="1.5" stroke-linecap="round" stroke-linejoin="round"/></svg>
